app/assets/v2/images/results/hourly-rate-distribution.svg

<svg fill="none" height="215" viewBox="0 0 215 215" width="215" xmlns="http://www.w3.org/2000/svg"><g fill="#bbafd0"><path clip-rule="evenodd" d="m121.004 83.4427c.421 24.1293-18.798 44.0313-42.9274 44.4523-24.1292.421-44.0312-18.798-44.4524-42.9271-.4212-24.1292 18.798-44.0312 42.9271-44.4523 24.1297-.4212 44.0317 18.7979 44.4527 42.9271zm-43.0671 36.4533c19.7116-.344 35.4121-16.602 35.0681-36.3137-.344-19.7116-16.6025-35.412-36.314-35.068-19.7116.3441-35.4121 16.6024-35.068 36.314.3441 19.7117 16.6024 35.4117 36.3139 35.0677z" fill-rule="evenodd"/><path d="m89.4508 84.2473-10.225 8.0152c-.8531.6687-1.983.6948-2.8646.066l-10.7369-7.659c-1.1442-.8162-1.5362-2.4822-.8987-3.8186l10.2205-21.4217c.9563-2.0043 3.5092-2.0358 4.5188-.0558l10.7414 21.0656c.6638 1.3018.3363 2.9525-.7555 3.8083z"/><path d="m68.1894 89.9237c3.8839 2.7505 8.6131 5.9403 9.7282 5.9926 1.1353.0534 6.2397-3.4496 10.349-6.4181 1.1889-.8589 2.6341.7634 1.8536 2.0862l-10.8579 18.4026c-.5078.86-1.6347.861-2.1492.001l-10.7511-17.9766c-.788-1.3175.6316-2.9346 1.8274-2.0877z"/></g><path clip-rule="evenodd" d="m96 148.486v-.349c0-5.523 4.477-10 10-10h10v-1c0-5.523 4.477-10 10-10h12c5.523 0 10 4.477 10 10v7h12c4.838 0 8.873 3.436 9.8 8h12.2c5.523 0 10 4.477 10 10v14c0 .338-.019.672-.055 1h.055c2.209 0 4 1.791 4 4s-1.791 4-4 4h-168c-2.2091 0-4-1.791-4-4s1.7909-4 4-4h12.0549c-.0363-.328-.0549-.662-.0549-1v-8.394c0-5.522 4.4772-10 10-10h10.9706c1.6084-3.369 5.0471-5.697 9.0294-5.697h12c.1152 0 .2299.002.3441.006 1.8344-2.18 4.5833-3.566 7.6559-3.566zm10-2.349c-1.105 0-2 .896-2 2v28c0 .553.448 1 1 1h14c.552 0 1-.447 1-1v-28c0-1.104-.895-2-2-2zm-20 10.349c-1.1046 0-2 .895-2 2v17.651c0 .553.4477 1 1 1h14c.5523 0 1-.447 1-1v-17.651c0-1.105-.8954-2-2-2zm-22 5.56c0-1.104.8954-2 2-2h12c1.1046 0 2 .896 2 2v14.091c0 .553-.4477 1-1 1h-14c-.5523 0-1-.447-1-1zm-18 3.697c-1.1046 0-2 .896-2 2v8.394c0 .553.4477 1 1 1h14c.5523 0 1-.447 1-1v-8.394c0-1.104-.8954-2-2-2zm98-11.606c0-1.104.895-2 2-2h14c1.105 0 2 .896 2 2v22c0 .553-.448 1-1 1h-16c-.552 0-1-.447-1-1zm24 6c-1.105 0-2 .896-2 2v14c0 .553.448 1 1 1h16c.552 0 1-.447 1-1v-14c0-1.104-.895-2-2-2z" fill="#180041" fill-rule="evenodd"/><path d="m124 137.137c0-1.104.895-2 2-2h12c1.105 0 2 .896 2 2v39c0 .553-.448 1-1 1h-14c-.552 0-1-.447-1-1z" fill="#00ed92"/></svg>

<svg width="215" height="215" viewBox="0 0 215 215" fill="none" xmlns="http://www.w3.org/2000/svg">
<path fill-rule="evenodd" clip-rule="evenodd" d="M121.004 83.4427C121.425 107.572 102.206 127.474 78.0766 127.895C53.9474 128.316 34.0454 109.097 33.6242 84.9679C33.203 60.8387 52.4222 40.9367 76.5513 40.5156C100.681 40.0944 120.583 59.3135 121.004 83.4427ZM77.9369 119.896C97.6485 119.552 113.349 103.294 113.005 83.5823C112.661 63.8707 96.4025 48.1703 76.691 48.5143C56.9794 48.8584 41.2789 65.1167 41.623 84.8283C41.9671 104.54 58.2254 120.24 77.9369 119.896Z" fill="#BBAFD0"/>
<path d="M89.4508 84.2473L79.2258 92.2625C78.3727 92.9312 77.2428 92.9573 76.3612 92.3285L65.6243 84.6695C64.4801 83.8533 64.0881 82.1873 64.7256 80.8509L74.9461 59.4292C75.9024 57.4249 78.4553 57.3934 79.4649 59.3734L90.2063 80.439C90.8701 81.7408 90.5426 83.3915 89.4508 84.2473Z" fill="#BBAFD0"/>
<path d="M68.1894 89.9237C72.0733 92.6742 76.8025 95.864 77.9176 95.9163C79.0529 95.9697 84.1573 92.4667 88.2666 89.4982C89.4555 88.6393 90.9007 90.2616 90.1202 91.5844L79.2623 109.987C78.7545 110.847 77.6276 110.848 77.1131 109.988L66.362 92.0114C65.574 90.6939 66.9936 89.0768 68.1894 89.9237Z" fill="#BBAFD0"/>
<path fill-rule="evenodd" clip-rule="evenodd" d="M96 148.486V148.137C96 142.614 100.477 138.137 106 138.137H116V137.137C116 131.614 120.477 127.137 126 127.137H138C143.523 127.137 148 131.614 148 137.137V144.137H160C164.838 144.137 168.873 147.573 169.8 152.137H182C187.523 152.137 192 156.614 192 162.137V176.137C192 176.475 191.981 176.809 191.945 177.137H192C194.209 177.137 196 178.928 196 181.137C196 183.346 194.209 185.137 192 185.137H24C21.7909 185.137 20 183.346 20 181.137C20 178.928 21.7909 177.137 24 177.137H36.0549C36.0186 176.809 36 176.475 36 176.137V167.743C36 162.221 40.4772 157.743 46 157.743H56.9706C58.579 154.374 62.0177 152.046 66 152.046H78C78.1152 152.046 78.2299 152.048 78.3441 152.052C80.1785 149.872 82.9274 148.486 86 148.486H96ZM106 146.137C104.895 146.137 104 147.033 104 148.137V176.137C104 176.69 104.448 177.137 105 177.137H119C119.552 177.137 120 176.69 120 176.137V148.137C120 147.033 119.105 146.137 118 146.137H106ZM86 156.486C84.8954 156.486 84 157.381 84 158.486V176.137C84 176.69 84.4477 177.137 85 177.137H99C99.5523 177.137 100 176.69 100 176.137V158.486C100 157.381 99.1046 156.486 98 156.486H86ZM64 162.046C64 160.942 64.8954 160.046 66 160.046H78C79.1046 160.046 80 160.942 80 162.046V176.137C80 176.69 79.5523 177.137 79 177.137H65C64.4477 177.137 64 176.69 64 176.137V162.046ZM46 165.743C44.8954 165.743 44 166.639 44 167.743V176.137C44 176.69 44.4477 177.137 45 177.137H59C59.5523 177.137 60 176.69 60 176.137V167.743C60 166.639 59.1046 165.743 58 165.743H46ZM144 154.137C144 153.033 144.895 152.137 146 152.137H160C161.105 152.137 162 153.033 162 154.137V176.137C162 176.69 161.552 177.137 161 177.137H145C144.448 177.137 144 176.69 144 176.137V154.137ZM168 160.137C166.895 160.137 166 161.033 166 162.137V176.137C166 176.69 166.448 177.137 167 177.137H183C183.552 177.137 184 176.69 184 176.137V162.137C184 161.033 183.105 160.137 182 160.137H168Z" fill="#180041"/>
<path d="M124 137.137C124 136.033 124.895 135.137 126 135.137H138C139.105 135.137 140 136.033 140 137.137V176.137C140 176.69 139.552 177.137 139 177.137H125C124.448 177.137 124 176.69 124 176.137V137.137Z" fill="#00ED92"/>
</svg>
